assets/icons/ic_arrow_up_right.svg

<svg fill="none" height="10" viewBox="0 0 10 10" width="10" xmlns="http://www.w3.org/2000/svg"><path clip-rule="evenodd" d="m.940879 1.18046c0-.451755.366221-.817972.817971-.817972h6.5551c.45175 0 .81797.366217.81797.817972v6.5551c0 .45175-.36622.81797-.81797.81797s-.81797-.36622-.81797-.81797v-4.58035l-5.73713 5.73713c-.31944.31944-.837348.31944-1.156785 0-.319436-.31944-.319436-.83735 0-1.15678l5.737135-5.73713h-4.58035c-.45175 0-.817971-.36622-.817971-.81797z" fill="#fff" fill-rule="evenodd"/></svg>

<svg width="10" height="10" viewBox="0 0 10 10" fill="none" xmlns="http://www.w3.org/2000/svg">
<path fill-rule="evenodd" clip-rule="evenodd" d="M0.940879 1.18046C0.940879 0.728705 1.3071 0.362488 1.75885 0.362488H8.31395C8.7657 0.362488 9.13192 0.728705 9.13192 1.18046V7.73556C9.13192 8.18731 8.7657 8.55353 8.31395 8.55353C7.8622 8.55353 7.49598 8.18731 7.49598 7.73556V3.15521L1.75885 8.89234C1.43941 9.21178 0.921502 9.21178 0.602065 8.89234C0.282629 8.5729 0.282629 8.05499 0.602065 7.73556L6.3392 1.99843H1.75885C1.3071 1.99843 0.940879 1.63221 0.940879 1.18046Z" fill="white"/>
</svg>
